!!!!SEGMENT: pl-gd--ee-1638--005-021_marenzio-luca--il-primo-libro-de-madrigali-spirituali-a-cinque-voci-dal-di-ch-io-presi-il-corso.krn
!!!cenid: 15xx:974
!!!COM: Marenzio, Luca
!!!COM-rismID: pe30003955
!!!CDT: ~1553-1599/08/22
!!!CNT: Italian
!!!GTL: Il Primo libro de madrigali spirituali a cinque voci
!!!OTL: Dal di ch’io presi il corso
!!!OMV: 021
!!!PDT: 1588
!!!AGN:
!!!SMS-siglum: PL-GD
!!!SMS-shelfmark: Ee 1638
!!!SMS-shelfwork: 005-021 G
!!!SMS-variant:
!!!SMS-altvar:
!!!NIFC-rismSourceID: 990039269
!!!NIFC-islandoraID: pl-gd:57883
!!!URL-pdf-islandora: https://repozytorium.nifc.pl/islandora/object/pl-gd%3A57883/datastream/PDF/view
!!!URL-scan: https://polish.musicsources.pl/pl/lokalizacje/galeria/klocki-introligatorskie/655 @EN{Scan on Polish Music Sources Website} @PL{Skany w portalu Dziedzictwo Muzyki Polskiej w otwartym dostępie}
!!!ONB-nifc: UWAGA: zbiór na stronach: Canto: s. 666-677, Alto: s. 514-525, Tenore: s. 362-373, Bassus: s. 210-221, Quinto: s. 58-69. Uwaga: utwory podzielone wg tytułów w spisach treści dostępnych na końcu każdej księgi głosowej.
!!!AIN: 1 alto 1 bass 1 soprn 1 tenor   1 vox
!!!key: F
**kern	**text	**mod-text	**kern	**text	**mod-text	**kern	**text	**mod-text	**kern	**text	**mod-text	**kern	**text	**mod-text
*part5	*part5	*part5	*part3	*part3	*part3	*part4	*part4	*part4	*part2	*part2	*part2	*part1	*part1	*part1
*staff5	*staff5	*staff5	*staff3	*staff3	*staff3	*staff4	*staff4	*staff4	*staff2	*staff2	*staff2	*staff1	*staff1	*staff1
*I"BASSO	*	*	*I"QVINTO 	*	*	*I"TENORE 	*	*	*I"ALTO	*	*	*I"CANTO	*	*
*mI"Basso	*	*	*mI"Tenore II	*	*	*mI"Tenore I	*	*	*mI"Alto	*	*	*mI"Soprano	*	*
*I'B	*	*	*I'V	*	*	*I'T	*	*	*I'A	*	*	*I'S	*	*
*mI'B	*	*	*mI'T II	*	*	*mI'T I	*	*	*mI'A	*	*	*mI'S	*	*
*ICvox	*	*	*ICvox	*	*	*ICvox	*	*	*ICvox	*	*	*ICvox	*	*
*Ibass	*	*	*Ivox	*	*	*Itenor  	*	*	*Ialto	*	*	*Isoprn	*	*
*clefC4	*	*	*clefC3	*	*	*clefC3	*	*	*clefC2	*	*	*clefG2	*	*
*mclefF4	*	*	*mclefGv2	*	*	*mclefGv2	*	*	*mclefG2	*	*	*	*	*
*k[b-]	*	*	*k[b-]	*	*	*k[b-]	*	*	*k[b-]	*	*	*k[b-]	*	*
*F:	*	*	*F:	*	*	*F:	*	*	*F:	*	*	*F:	*	*
*M2/1	*	*	*M2/1	*	*	*M2/1	*	*	*M2/1	*	*	*M2/1	*	*
*met(C)	*	*	*met(C)	*	*	*met(C)	*	*	*met(C)	*	*	*met(C)	*	*
*mmet(c|)	*	*	*mmet(c|)	*	*	*mmet(c|)	*	*	*mmet(c|)	*	*	*mmet(c|)	*	*
=1-	=1-	=1-	=1-	=1-	=1-	=1-	=1-	=1-	=1-	=1-	=1-	=1-	=1-	=1-
!!LO:TX:a:B:t=Settima et vlt. Par.
!	!	!	!	!	!	!	!	!	!LO:TX:t=P:problem:podwójnie zapisany znak przykluczowy, kolejno: B- b-	!	!	!	!	!
1c	DAl	Dal	00r	.	.	0r	.	.	1r	.	.	1r	.	.
1c	dì	di,	.	.	.	.	.	.	2r	.	.	2r	.	.
.	.	.	.	.	.	.	.	.	2c/	ch’io	ch’io	2cc\	Ch’io	ch’io
=2-	=2-	=2-	=2-	=2-	=2-	=2-	=2-	=2-	=2-	=2-	=2-	=2-	=2-	=2-
0r	.	.	.	.	.	1r	.	.	4d/	pre-	pre-	4f/	pre-	pre-
.	.	.	.	.	.	.	.	.	4e/	ſi il	si il	4g/	-ſi il	-si il
.	.	.	.	.	.	.	.	.	4f\	cor-	cor-	4a/	cor-	cor-
.	.	.	.	.	.	.	.	.	4g\	-ſo in	so in	4b-/	-ſo in	-so in
.	.	.	.	.	.	1f	DAl	Dal	4a\	ver	ver	4cc\	ver	ver
.	.	.	.	.	.	.	.	.	4b-\	del	del	2b-/	del	del
.	.	.	.	.	.	.	.	.	2cc\	boſ-	bos-	.	.	.
.	.	.	.	.	.	.	.	.	.	.	.	4a/	boſ-	bos-
=3-	=3-	=3-	=3-	=3-	=3-	=3-	=3-	=3-	=3-	=3-	=3-	=3-	=3-	=3-
1B-	Dal	dal	2r	.	.	2f\	dì	di	2dd\	-co	-co,	1b-	-co	-co,
.	.	.	2f\	Ch’io	ch’io	4r	.	.	2d/	Dal	dal	.	.	.
.	.	.	.	.	.	4f\	ch’io	ch’io	.	.	.	.	.	.
1B-	dì	di	4B-/	pre-	pre-	4d\	pre-	pre-	1f	dì	di,	1r	.	.
.	.	.	4c/	-ſi il	-si il	4e\	-ſi il	-si il	.	.	.	.	.	.
.	.	.	4d\	cor-	cor-	4f\	cor-	cor-	.	.	.	.	.	.
.	.	.	4e\	-ſo in	-so in	4g\	-ſo in	-so in	.	.	.	.	.	.
=4-	=4-	=4-	=4-	=4-	=4-	=4-	=4-	=4-	=4-	=4-	=4-	=4-	=4-	=4-
1r	.	.	4f\	ver	ver	4a\	ver	ver	1r	.	.	1cc	Dal	dal
.	.	.	4g\	del	del	4e\	del	del	.	.	.	.	.	.
.	.	.	2a\	boſ-	bos-	2.f\	bo-	bos-	.	.	.	.	.	.
2r	.	.	1g	-co	-co,	.	.	.	1c	Dal	dal	2cc\	dì	di
.	.	.	.	.	.	8e\	.	.	.	.	.	.	.	.
.	.	.	.	.	.	8d\	.	.	.	.	.	.	.	.
*	*	*	*	*	*	*	*	*	*	*	*	*custos:g	*	*
!	!	!	!	!	!	!	!	!	!	!	!	!LO:LB:g=original	!	!
2c\	ch’io	ch’io	.	.	.	2e\	.	.	.	.	.	4r	.	.
.	.	.	.	.	.	.	.	.	.	.	.	4g/	ch’io	ch’io
*	*	*	*	*	*	*custos:f	*	*	*custos:c	*	*	*	*	*
!	!	!	!	!	!	!LO:LB:g=original	!	!	!LO:LB:g=original	!	!	!	!	!
=5-	=5-	=5-	=5-	=5-	=5-	=5-	=5-	=5-	=5-	=5-	=5-	=5-	=5-	=5-
4F/	pre-	pre-	2r	.	.	1f	-ſco	-co,	1c	dì	di	4a/	pre-	pre-
4G/	-ſi il	-si il	.	.	.	.	.	.	.	.	.	4b-/	-ſi il	-si il
4A/	cor-	cor-	2c/	Dal	dal	.	.	.	.	.	.	4cc\	cor-	cor-
4B-\	-ſo in	-so in	.	.	.	.	.	.	.	.	.	4dd\	-ſo in	-so in
4c\	ver	ver	1c	dì	di	2r	.	.	2r	.	.	4ee\	ver	ver
4d\	del	del	.	.	.	.	.	.	.	.	.	4ff\	del	del
2e\	boſ-	bos-	.	.	.	2c/	ch’io	ch’io	2cc\	ch’io	ch’io	2gg\	boſ-	bos-
=6-	=6-	=6-	=6-	=6-	=6-	=6-	=6-	=6-	=6-	=6-	=6-	=6-	=6-	=6-
2f\	-co	-co,	1r	.	.	4d\	pre-	pre-	4f\	pre-	pre-	2ff\	-co	-co,
.	.	.	.	.	.	4e\	-ſi il	-si il	4g\	-ſi il	-si il	.	.	.
*custos:F	*	*	*	*	*	*	*	*	*	*	*	*	*	*
!LO:LB:g=original	!	!	!	!	!	!	!	!	!	!	!	!	!	!
2F/	Dal	dal	.	.	.	4f\	cor-	cor-	4a\	cor-	cor-	2cc\	in	in
.	.	.	.	.	.	4g\	-ſo in	-so in	4b-\	-ſo in	-so in	.	.	.
*	*	*	*custos:c	*	*	*	*	*	*	*	*	*	*	*
!	!	!	!LO:LB:g=original	!	!	!	!	!	!	!	!	!	!	!
2F/	dì	di	2r	.	.	4a\	ver	ver	4cc\	ver	ver	4ff\	ver	ver
.	.	.	.	.	.	4f\	del	del	2b-\	del	del	4dd\	del	del
2F/	ch’io	ch’io	2c/	ch’io	ch’io	2.f\	bo-	bo-	.	.	.	2cc\	boſ-	bos-
.	.	.	.	.	.	.	.	.	4a\	boſ-	bos-	.	.	.
=7-	=7-	=7-	=7-	=7-	=7-	=7-	=7-	=7-	=7-	=7-	=7-	=7-	=7-	=7-
4BB-/	pre-	pre-	4d\	pre-	pre-	.	.	.	1b-	-co	-co,	2b-/	-co	-co,
4C/	-ſi’l	-si’l	4e\	-ſi il	-si il	4e\	.	.	.	.	.	.	.	.
4D/	cor-	cor-	4f\	cor-	cor-	2d\	.	.	.	.	.	4r	.	.
4E/	-ſo in	-so in	4g\	-ſo in	-so in	.	.	.	.	.	.	4g/	in	in
4F/	ver	ver	4f\	ver	ver	1c	-ſco	-sco,	4r	.	.	4a/	ver	ver
4G/	del	del	8e\	.	.	.	.	.	4g\	in	in	4b-/	del	del
.	.	.	8d\	.	.	.	.	.	.	.	.	.	.	.
2A/	boſ-	bos-	4c/	.	.	.	.	.	4e/	ver	ver	2.cc\	bo-	bos-
.	.	.	4c/	del	del	.	.	.	4f\	del	del	.	.	.
=8-	=8-	=8-	=8-	=8-	=8-	=8-	=8-	=8-	=8-	=8-	=8-	=8-	=8-	=8-
1G	-co	-co,	1d	boſ-	bos-	2r	.	.	1g	boſ-	bos-	.	.	.
!	!	!	!	!	!	!	!	!	!	!	!	!LO:MO:mod=!null:null	!	!
!	!	!	!	!	!	!	!	!	!	!	!	!LO:N:acc=#	!	!
.	.	.	.	.	.	.	.	.	.	.	.	8bn/	.	.
.	.	.	.	.	.	.	.	.	.	.	.	8a/	.	.
*	*	*	*	*	*	*	*	*	*	*	*	*custos:b	*	*
!	!	!	!	!	!	!	!	!	!	!	!	!LO:LB:g=original	!	!
!	!	!	!	!	!	!	!	!	!	!	!	!LO:MO:mod=!null:null	!	!
!	!	!	!	!	!	!	!	!	!	!	!	!LO:N:acc=#	!	!
!	!	!	!	!	!	!	!	!	!	!	!	!LO:SIC:s=2b/	!	!
.	.	.	.	.	.	2g\	Al-	Al-	.	.	.	2bn/	.	.
2r	.	.	0c	-co	-co,	2.e\	-tro	-tro	2g\	-co	-co,	0cc	-ſco	-co,
2c\	Al-	Al-	.	.	.	.	.	.	4r	.	.	.	.	.
.	.	.	.	.	.	4e\	che	che	4g\	Al-	Al-	.	.	.
=9-	=9-	=9-	=9-	=9-	=9-	=9-	=9-	=9-	=9-	=9-	=9-	=9-	=9-	=9-
2.A/	-tro	-tro	.	.	.	4f\	piog-	piog-	2a\	-tro	-tro	.	.	.
.	.	.	.	.	.	4e\	-gia	-gia	.	.	.	.	.	.
*	*	*	*	*	*	*custos:a	*	*	*custos:e	*	*	*	*	*
!	!	!	!	!	!	!LO:LB:g=original	!	!	!LO:LB:g=original	!	!	!	!	!
.	.	.	.	.	.	4a\	mai	mai	4e/	che	che	.	.	.
4A/	che	che	.	.	.	4a\	non	non	2f\	piog-	piog-	.	.	.
2B-\	piog-	piog-	0r	.	.	2d\	vi-	vi-	.	.	.	2r	.	.
.	.	.	.	.	.	.	.	.	4d/	-gia	-gia	.	.	.
2A/	-gia	-gia	.	.	.	2a\	-di	-di,	4e/	mai	mai	2cc\	Al-	Al-
.	.	.	.	.	.	.	.	.	4e/	non	non	.	.	.
=10-	=10-	=10-	=10-	=10-	=10-	=10-	=10-	=10-	=10-	=10-	=10-	=10-	=10-	=10-
2d\	mai	mai	.	.	.	2r	.	.	2f\	vi-	vi-	2.a/	-tro	-tro
2d\	non	non	.	.	.	2f\	Al-	al-	2a\	-di	-di,	.	.	.
.	.	.	.	.	.	.	.	.	.	.	.	4a/	che	che
2G/	vi-	vi-	2r	.	.	2.d\	-tro	-tro	2r	.	.	2b-y/	piog-	piog-
*custos:d	*	*	*	*	*	*	*	*	*	*	*	*	*	*
!LO:LB:g=original	!	!	!	!	!	!	!	!	!	!	!	!	!	!
2d\	-di	-di,	2f\	Al-	Al-	.	.	.	4r	.	.	2a/	-gia	-gia
.	.	.	.	.	.	4d\	che	che	4a\	Al-	al-	.	.	.
=11-	=11-	=11-	=11-	=11-	=11-	=11-	=11-	=11-	=11-	=11-	=11-	=11-	=11-	=11-
00r	.	.	2.d\	-tro	-tro	2f#X\	piog-	piog-	2a\	-tro	-tro	2dd\	mai	mai
.	.	.	.	.	.	2f#\	-gia	-gia	4a\	che	che	2dd\	non	non
.	.	.	4d\	che	che	.	.	.	2b-\	piog-	piog-	.	.	.
.	.	.	2e-X\	piog-	piog-	4r	.	.	.	.	.	2g/	vi-	vi-
.	.	.	.	.	.	2g\	mai	mai	4g\	-gia	-gia	.	.	.
.	.	.	2d\	-gia	-gia	.	.	.	2a\	mai	mai	1dd\	-di	-di,
!	!	!	!	!	!	!LO:SIC:s=4f#\	!	!	!	!	!	!	!	!
.	.	.	.	.	.	4f#X\	non	non	.	.	.	.	.	.
=12-	=12-	=12-	=12-	=12-	=12-	=12-	=12-	=12-	=12-	=12-	=12-	=12-	=12-	=12-
!	!	!	!	!	!	!	!	!	!LO:MO:mod=!null:null	!	!	!	!	!
!	!	!	!	!	!	!	!	!	!LO:N:acc=#	!	!	!	!	!
.	.	.	2g\	mai	mai	2g\	vi-	vi-	1bn	non	non	.	.	.
*	*	*	*custos:g	*	*	*	*	*	*	*	*	*	*	*
!	!	!	!LO:LB:g=original	!	!	!	!	!	!	!	!	!	!	!
.	.	.	2g\	non	non	2G/	-di	-di	.	.	.	2dd\	non	non
.	.	.	2c/	vi-	vi-	2r	.	.	2cc\	vi-	vi-	2ee-X\	vi-	vi-
.	.	.	2g\	di ò	di o	1G/	ò	o	2b\	di ò	di o	2dd\	di ò	di o
=13-	=13-	=13-	=13-	=13-	=13-	=13-	=13-	=13-	=13-	=13-	=13-	=13-	=13-	=13-
00r	.	.	1e-X	ven-	ven-	.	.	.	8b-y\	ven-	ven-	8g/	ven-	ven-
.	.	.	.	.	.	.	.	.	8a\	.	.	8f/	.	.
.	.	.	.	.	.	.	.	.	8g\	.	.	8g/	.	.
.	.	.	.	.	.	.	.	.	8f\	.	.	8a/	.	.
*	*	*	*	*	*	*	*	*	*custos:g	*	*	*	*	*
!	!	!	!	!	!	!	!	!	!LO:LB:g=original	!	!	!	!	!
.	.	.	.	.	.	1g	ven-	ven-	2g\	.	.	8b-/	.	.
*	*	*	*	*	*	*	*	*	*	*	*	*custos:b	*	*
!	!	!	!	!	!	!	!	!	!	!	!	!LO:LB:g=original	!	!
.	.	.	.	.	.	.	.	.	.	.	.	8a/	.	.
.	.	.	.	.	.	.	.	.	.	.	.	8b-/	.	.
.	.	.	.	.	.	.	.	.	.	.	.	8cc\	.	.
.	.	.	1d	-to	-to;	.	.	.	1a	-to	-to;	2dd\	.	.
.	.	.	.	.	.	2f#X\	-to	-to;	.	.	.	2a/	-to	-to;
=14-	=14-	=14-	=14-	=14-	=14-	=14-	=14-	=14-	=14-	=14-	=14-	=14-	=14-	=14-
!	!	!	!	!	!	!	!	!	!	!	!	!LO:MO:mod=!null:null	!	!
!	!	!	!	!	!	!	!	!	!	!	!	!LO:N:acc=#	!	!
.	.	.	2G/	Sì	Si	4r	.	.	2g\	Sì	Si	2bn/	Sì	Si
.	.	.	.	.	.	4d\	Sì	Si	.	.	.	.	.	.
*	*	*	*	*	*	*custos:e	*	*	*	*	*	*	*	*
!	!	!	!	!	!	!LO:LB:g=original	!	!	!	!	!	!	!	!
.	.	.	1c	fe	fe’	1e	fe	fe’	1g	fe	fe’	1cc	fe	fe’
!	!	!	!LO:MO:mod=!null:null	!	!	!	!	!	!	!	!	!	!	!
!	!	!	!LO:N:acc=#	!	!	!	!	!	!	!	!	!	!	!
.	.	.	2Bn/	l’a-	l’a-	2d\	l’a-	l’a-	2g\	l’a-	l’a-	1dd\	l’a-	l’a-
=15-	=15-	=15-	=15-	=15-	=15-	=15-	=15-	=15-	=15-	=15-	=15-	=15-	=15-	=15-
00r	.	.	1c	-cer-	-cer-	1.e	-cer-	-cer-	1g	-cer-	-cer-	.	.	.
.	.	.	.	.	.	.	.	.	.	.	.	2.cc\	-cer-	-cer-
.	.	.	1G	-bo	-bo	.	.	.	1.g	-bo	-bo	.	.	.
!	!	!	!	!	!	!	!	!	!	!	!	!LO:SIC:v:s=8bn/	!	!
.	.	.	.	.	.	.	.	.	.	.	.	8b-y/	.	.
.	.	.	.	.	.	.	.	.	.	.	.	8a/	.	.
!	!	!	!	!	!	!	!	!	!	!	!	!LO:SIC:v:s=2b/	!	!
.	.	.	.	.	.	2d\	-bo	-bo	.	.	.	2b-/	.	.
=16-	=16-	=16-	=16-	=16-	=16-	=16-	=16-	=16-	=16-	=16-	=16-	=16-	=16-	=16-
*	*	*	*	*	*	*	*	*	*	*	*	*lig	*	*
.	.	.	2.A/	ſtral	stral	1c	ſtral	stral	.	.	.	1a	-bo	-bo
.	.	.	.	.	.	.	.	.	2.f\	ſtral	stral	.	.	.
.	.	.	4B-y/	.	.	.	.	.	.	.	.	.	.	.
.	.	.	1c	.	.	2r	.	.	.	.	.	1.g	.	.
.	.	.	.	.	.	.	.	.	8e/	.	.	.	.	.
.	.	.	.	.	.	.	.	.	8d/	.	.	.	.	.
.	.	.	.	.	.	2c/	tri-	tri-	4e/	.	.	.	.	.
.	.	.	.	.	.	.	.	.	4cc\	tri-	tri-	.	.	.
*	*	*	*	*	*	*	*	*	*	*	*	*Xlig	*	*
=17-	=17-	=17-	=17-	=17-	=17-	=17-	=17-	=17-	=17-	=17-	=17-	=17-	=17-	=17-
0r	.	.	1r	.	.	2e\	-ſta	-sta	2cc\	-ſta	-sta	.	.	.
.	.	.	.	.	.	2fny\	mia	mia	2a\	mia	mia	2cc\	ſtral	stral
.	.	.	2r	.	.	4c/	vi-	vi-	1.g	vi-	vi-	2r	.	.
.	.	.	.	.	.	4d\	.	.	.	.	.	.	.	.
.	.	.	2c/	tri-	tri-	4e\	.	.	.	.	.	2cc\	tri-	tri-
.	.	.	.	.	.	4f\	.	.	.	.	.	.	.	.
=18-	=18-	=18-	=18-	=18-	=18-	=18-	=18-	=18-	=18-	=18-	=18-	=18-	=18-	=18-
1r	.	.	2eny\	-ſta	-sta	2g\	.	.	.	.	.	2cc\	-ſta	-sta
.	.	.	2f\	mia	mia	1f	.	.	2cc\	-ta	-ta,	2a/	mia	mia
2r	.	.	00c	vi-	vi-	.	.	.	2r	.	.	1g	vi-	vi-
2C/	tri-	tri-	.	.	.	2e\	-ta	-ta,	2cc\	tri-	tri-	.	.	.
*	*	*	*	*	*	*	*	*	*	*	*	*custos:g	*	*
!	!	!	!	!	!	!	!	!	!	!	!	!LO:LB:g=original	!	!
=19-	=19-	=19-	=19-	=19-	=19-	=19-	=19-	=19-	=19-	=19-	=19-	=19-	=19-	=19-
2E/	-ſta	-sta	.	.	.	2r	.	.	2cc\	-ſta	-sta	2g/	-ta	-ta,
2F/	mia	mia	.	.	.	2c/	tri-	tri-	2a\	mia	mia	4r	.	.
.	.	.	.	.	.	.	.	.	.	.	.	4c/	tri-	tri-
!	!	!	!LO:N:vis=00	!	!	!	!	!	!	!	!	!	!	!
0C	vi-	vi-	.	.	.	2c/	-ſta	-sta	2g\	vi-	vi-	2e/	-ſta	-sta
*	*	*	*	*	*	*	*	*	*custos:f	*	*	*	*	*
!	!	!	!	!	!	!	!	!	!LO:LB:g=original	!	!	!	!	!
.	.	.	.	.	.	2A/	mia	mia	2.f\	.	.	2f/	mia	mia
=20-	=20-	=20-	=20-	=20-	=20-	=20-	=20-	=20-	=20-	=20-	=20-	=20-	=20-	=20-
.	.	.	.	.	.	1G	vi-	vi-	.	.	.	1g	vi-	vi-
.	.	.	.	.	.	.	.	.	8e/	.	.	.	.	.
.	.	.	.	.	.	.	.	.	8d/	.	.	.	.	.
.	.	.	.	.	.	.	.	.	2e/	.	.	.	.	.
00F	-ta.	-ta.	00c	-ta.	-ta.	00F	-ta.	-ta.	00f	-ta.	-ta.	00a	-ta.	-ta.
.	.	.	.	.	.	.	.	.	.	.	.	.	.	.
==	==	==	==	==	==	==	==	==	==	==	==	==	==	==
*-	*-	*-	*-	*-	*-	*-	*-	*-	*-	*-	*-	*-	*-	*-
!!!system-decoration: [(s1,s2,s3,s4,s5)]
!!!RDF**kern: l = terminal long
!!!filter-modern: sic -sq | shed -e "s/LO:DY:(a|b|rj)/LO:dy:$1/L" | autostem -r | tie -s | shed -e "s/-//B" | shed -k -e "s/[<>]//g" | shed -e "s/^custos:/Xcustos:/I" | shed -e "s/TX(.*):t=P:/tx$1:t=P:/LG" | shed -e "s/^(\d+[\/\\]right)/$1yy/I; s/^(\d+[\/\\]left)/$1yy/I" | humtr -p | modori -m
!!!ENC: Mateusz Solarz
!!!END: 2022-06-29
!!!ENC: Natalia Wrzos
!!!END: 2022-07-18
!!!ENC-modern: Katarzyna Serwa
!!!END-modern: 2022-08-14
